Flat-Remix-Dark/apps/scalable/boinc.svg

<svg xmlns="http://www.w3.org/2000/svg" xmlns:xlink="http://www.w3.org/1999/xlink" width="384pt" height="384pt" version="1.1" viewBox="0 0 384 384">
 <defs>
  <filter id="alpha" width="100%" height="100%" x="0%" y="0%" filterUnits="objectBoundingBox">
   <feColorMatrix in="SourceGraphic" type="matrix" values="0 0 0 0 1 0 0 0 0 1 0 0 0 0 1 0 0 0 1 0"/>
  </filter>
  <mask id="mask0">
   <g filter="url(#alpha)">
    <rect style="fill:rgb(0%,0%,0%);fill-opacity:0.2" width="384" height="384" x="0" y="0"/>
   </g>
  </mask>
  <clipPath id="clip1">
   <rect width="384" height="384" x="0" y="0"/>
  </clipPath>
  <g id="surface5" clip-path="url(#clip1)">
   <path d="M 32.09375 196 C 32.0625 197.335938 32 198.65625 32 200 C 32 288.640625 103.359375 360 192 360 C 280.640625 360 352 288.640625 352 200 C 352 198.65625 351.9375 197.335938 351.90625 196 C 349.792969 282.769531 279.296875 352 192 352 C 104.703125 352 34.207031 282.769531 32.097656 196 Z M 32.09375 196" style="fill:rgb(0%,0%,0%)"/>
  </g>
  <mask id="mask2">
   <g filter="url(#alpha)">
    <rect style="fill:rgb(0%,0%,0%);fill-opacity:0.101961" width="384" height="384" x="0" y="0"/>
   </g>
  </mask>
  <clipPath id="clip3">
   <rect width="384" height="384" x="0" y="0"/>
  </clipPath>
  <g id="surface11" clip-path="url(#clip3)">
   <path d="M 192 32 C 280.558594 32 351.855469 103.359375 351.855469 192 C 351.855469 193.34375 351.792969 194.664062 351.761719 196 C 349.652344 109.230469 279.21875 40 192.003906 40 C 104.785156 40 34.355469 109.230469 32.242188 196 C 32.210938 194.664062 32.148438 193.34375 32.148438 192 C 32.148438 103.359375 103.445312 32 192.003906 32 Z M 192 32" style="fill:rgb(100%,100%,100%)"/>
  </g>
 </defs>
 <use width="100%" height="100%" x="0" y="0" mask="url(#mask0)" xlink:href="#surface5"/>
 <path style="fill:#213554" d="m 192,32 c -88.64062,0 -160,71.35938 -160,160 0,88.64062 71.35938,160 160,160 88.64062,0 160,-71.35938 160,-160 C 352,103.35938 280.64062,32 192,32 Z m 0,0"/>
 <path d="m 285.45337,69.827315 -24.17285,41.874025 -16.26563,28.17187 c 17.13282,15.16016 26.95801,36.9336 26.98536,59.8125 -0.0273,8.60156 -1.4419,17.14551 -4.188,25.29786 l 28.14112,16.2495 c 5.29688,-13.21092 8.02685,-27.31299 8.04638,-41.54736 -0.0117,-22.71875 -6.93408,-44.89795 -19.84423,-63.59326 l 25.71973,-44.547362 c -7.37892,-8.04297 -15.53906,-15.32715 -24.42188,-21.717773 z M 83.858644,81.811198 c -8.04297,7.37891 -15.327143,15.53905 -21.717773,24.421872 l 41.874019,24.17139 28.17188,16.26563 c 15.16015,-17.13281 36.9336,-26.95655 59.8125,-26.98389 8.60155,0.0273 17.14551,1.4419 25.29785,4.18799 l 16.24951,-28.141122 c -13.21093,-5.29687 -27.31299,-8.02685 -41.54736,-8.04638 -22.71875,0.0117 -44.89796,6.93262 -63.59327,19.842772 z M 191.99927,151.68571 c -26.50781,0 -48,21.49219 -48,48 0,26.50781 21.49219,48 48,48 26.5078,0 48,-21.49219 48,-48 0,-26.50781 -21.4922,-48 -48,-48 z m -103.952641,6.45411 c -5.296868,13.21093 -8.026853,27.31152 -8.046383,41.54589 0.0117,22.71875 6.93261,44.89942 19.842773,63.59473 l -25.718265,44.5459 c 7.378905,8.04297 15.53907,15.3286 24.421875,21.71923 l 24.171391,-41.87548 16.26562,-28.17188 c -17.1328,-15.16016 -26.95654,-36.93359 -26.98389,-59.8125 0.0273,-8.60156 1.4419,-17.14404 4.188,-25.29639 z m 163.765141,94.56152 c -15.16016,17.13282 -36.93359,26.95801 -59.8125,26.98535 -8.60156,-0.0273 -17.14404,-1.4419 -25.29639,-4.18799 l -16.24951,28.14112 c 13.21093,5.29687 27.31151,8.02685 41.5459,8.04638 22.71874,-0.0117 44.89942,-6.93408 63.59473,-19.84424 l 44.54589,25.71973 c 8.04297,-7.37891 15.32861,-15.53905 21.71924,-24.42187 l -41.87549,-24.17286 z"/>
 <path style="fill:#357af0" d="M 285.45312,62.140625 261.28125,104.01563 245.01562,132.1875 C 262.14844,147.34766 271.97266,169.12109 272,192 c -0.0273,8.60156 -1.44141,17.14453 -4.1875,25.29687 l 28.14062,16.25 C 301.25,220.33594 303.98047,206.23437 304,192 303.9883,169.28125 297.06641,147.10156 284.15625,128.40625 L 309.875,83.859375 C 302.49609,75.816406 294.33594,68.53125 285.45312,62.140625 Z M 83.859375,74.125 C 75.816406,81.503906 68.53125,89.664062 62.140625,98.546875 l 41.875005,24.171875 28.17187,16.26562 C 147.34766,121.85156 169.12109,112.02734 192,112 c 8.60156,0.0273 17.14453,1.44141 25.29687,4.1875 l 16.25,-28.140625 C 220.33594,82.75 206.23437,80.019531 192,80 c -22.71875,0.01172 -44.89844,6.933594 -63.59375,19.84375 z m 4.1875,76.32812 C 82.75,163.66406 80.019531,177.76562 80,192 c 0.01172,22.71875 6.933594,44.89844 19.84375,63.59375 L 74.125,300.14062 c 7.378906,8.04297 15.539062,15.32813 24.421875,21.71875 l 24.171875,-41.875 16.26562,-28.17187 C 121.85156,236.65234 112.02734,214.87891 112,192 c 0.0273,-8.60156 1.44141,-17.14453 4.1875,-25.29688 z M 251.8125,245.01562 C 236.65234,262.14844 214.87891,271.97266 192,272 c -8.60156,-0.0273 -17.14453,-1.44141 -25.29688,-4.1875 l -16.25,28.14062 C 163.66406,301.25 177.76562,303.98047 192,304 c 22.71875,-0.0117 44.89844,-6.93359 63.59375,-19.84375 l 44.54687,25.71875 c 8.04297,-7.37891 15.32813,-15.53906 21.71875,-24.42188 l -41.875,-24.17187 z m 0,0"/>
 <use width="100%" height="100%" x="0" y="0" mask="url(#mask2)" xlink:href="#surface11"/>
 <path style="fill:#ffc730" d="m 240,192 c 0,26.50781 -21.49219,48 -48,48 -26.50781,0 -48,-21.49219 -48,-48 0,-26.50781 21.49219,-48 48,-48 26.50781,0 48,21.49219 48,48 z m 0,0"/>
</svg>

<svg xmlns="http://www.w3.org/2000/svg" xmlns:xlink="http://www.w3.org/1999/xlink" width="384pt" height="384pt" version="1.1" viewBox="0 0 384 384">
 <defs>
  <filter id="alpha" width="100%" height="100%" x="0%" y="0%" filterUnits="objectBoundingBox">
   <feColorMatrix in="SourceGraphic" type="matrix" values="0 0 0 0 1 0 0 0 0 1 0 0 0 0 1 0 0 0 1 0"/>
  </filter>
  <mask id="mask0">
   <g filter="url(#alpha)">
    <rect width="384" height="384" x="0" y="0" style="fill:rgb(0%,0%,0%);fill-opacity:0.2"/>
   </g>
  </mask>
  <clipPath id="clip1">
   <rect width="384" height="384" x="0" y="0"/>
  </clipPath>
  <g id="surface5" clip-path="url(#clip1)">
   <path style="fill:rgb(0%,0%,0%)" d="M 32.09375 196 C 32.0625 197.335938 32 198.65625 32 200 C 32 288.640625 103.359375 360 192 360 C 280.640625 360 352 288.640625 352 200 C 352 198.65625 351.9375 197.335938 351.90625 196 C 349.792969 282.769531 279.296875 352 192 352 C 104.703125 352 34.207031 282.769531 32.097656 196 Z M 32.09375 196"/>
  </g>
  <mask id="mask1">
   <g filter="url(#alpha)">
    <rect width="384" height="384" x="0" y="0" style="fill:rgb(0%,0%,0%);fill-opacity:0.2"/>
   </g>
  </mask>
  <clipPath id="clip2">
   <rect width="384" height="384" x="0" y="0"/>
  </clipPath>
  <g id="surface8" clip-path="url(#clip2)">
   <path style="fill:rgb(0%,0%,0%)" d="M 285.453125 70.140625 L 261.28125 112.015625 L 245.015625 140.1875 C 262.148438 155.347656 271.972656 177.121094 272 200 C 271.972656 208.601562 270.558594 217.144531 267.8125 225.296875 L 295.953125 241.546875 C 301.25 228.335938 303.980469 214.234375 304 200 C 303.988281 177.28125 297.066406 155.101562 284.15625 136.40625 L 309.875 91.859375 C 302.496094 83.816406 294.335938 76.53125 285.453125 70.140625 Z M 83.859375 82.125 C 75.816406 89.503906 68.53125 97.664062 62.140625 106.546875 L 104.015625 130.71875 L 132.1875 146.984375 C 147.347656 129.851562 169.121094 120.027344 192 120 C 200.601562 120.027344 209.144531 121.441406 217.296875 124.1875 L 233.546875 96.046875 C 220.335938 90.75 206.234375 88.019531 192 88 C 169.28125 88.011719 147.101562 94.933594 128.40625 107.84375 Z M 88.046875 158.453125 C 82.75 171.664062 80.019531 185.765625 80 200 C 80.011719 222.71875 86.933594 244.898438 99.84375 263.59375 L 76.953125 303.234375 C 84.5 311.039062 92.777344 318.125 101.78125 324.265625 L 122.71875 287.984375 L 138.984375 259.8125 C 121.851562 244.652344 112.027344 222.878906 112 200 C 112.027344 191.398438 113.441406 182.855469 116.1875 174.703125 Z M 251.8125 253.015625 C 236.652344 270.148438 214.878906 279.972656 192 280 C 183.398438 279.972656 174.855469 278.558594 166.703125 275.8125 L 150.453125 303.953125 C 163.664062 309.25 177.765625 311.980469 192 312 C 214.71875 311.988281 236.898438 305.066406 255.59375 292.15625 L 294.75 314.765625 C 303.207031 307.6875 310.84375 299.714844 317.671875 291.046875 L 279.984375 269.28125 Z M 251.8125 253.015625"/>
  </g>
  <mask id="mask2">
   <g filter="url(#alpha)">
    <rect width="384" height="384" x="0" y="0" style="fill:rgb(0%,0%,0%);fill-opacity:0.101961"/>
   </g>
  </mask>
  <clipPath id="clip3">
   <rect width="384" height="384" x="0" y="0"/>
  </clipPath>
  <g id="surface11" clip-path="url(#clip3)">
   <path style="fill:rgb(100%,100%,100%)" d="M 192 32 C 280.558594 32 351.855469 103.359375 351.855469 192 C 351.855469 193.34375 351.792969 194.664062 351.761719 196 C 349.652344 109.230469 279.21875 40 192.003906 40 C 104.785156 40 34.355469 109.230469 32.242188 196 C 32.210938 194.664062 32.148438 193.34375 32.148438 192 C 32.148438 103.359375 103.445312 32 192.003906 32 Z M 192 32"/>
  </g>
  <mask id="mask3">
   <g filter="url(#alpha)">
    <rect width="384" height="384" x="0" y="0" style="fill:rgb(0%,0%,0%);fill-opacity:0.2"/>
   </g>
  </mask>
  <clipPath id="clip4">
   <rect width="384" height="384" x="0" y="0"/>
  </clipPath>
  <g id="surface14" clip-path="url(#clip4)">
   <path style="fill:rgb(0%,0%,0%)" d="M 240 200 C 240 226.507812 218.507812 248 192 248 C 165.492188 248 144 226.507812 144 200 C 144 173.492188 165.492188 152 192 152 C 218.507812 152 240 173.492188 240 200 Z M 240 200"/>
  </g>
 </defs>
 <g>
  <use mask="url(#mask0)" xlink:href="#surface5"/>
  <path style="fill:rgb(13.333333%,21.176471%,33.72549%)" d="M 192 32 C 103.359375 32 32 103.359375 32 192 C 32 280.640625 103.359375 352 192 352 C 280.640625 352 352 280.640625 352 192 C 352 103.359375 280.640625 32 192 32 Z M 192 32"/>
  <use mask="url(#mask1)" xlink:href="#surface8"/>
  <path style="fill:rgb(21.176471%,48.235294%,94.117647%)" d="M 285.453125 62.140625 L 261.28125 104.015625 L 245.015625 132.1875 C 262.148438 147.347656 271.972656 169.121094 272 192 C 271.972656 200.601562 270.558594 209.144531 267.8125 217.296875 L 295.953125 233.546875 C 301.25 220.335938 303.980469 206.234375 304 192 C 303.988281 169.28125 297.066406 147.101562 284.15625 128.40625 L 309.875 83.859375 C 302.496094 75.816406 294.335938 68.53125 285.453125 62.140625 Z M 83.859375 74.125 C 75.816406 81.503906 68.53125 89.664062 62.140625 98.546875 L 104.015625 122.71875 L 132.1875 138.984375 C 147.347656 121.851562 169.121094 112.027344 192 112 C 200.601562 112.027344 209.144531 113.441406 217.296875 116.1875 L 233.546875 88.046875 C 220.335938 82.75 206.234375 80.019531 192 80 C 169.28125 80.011719 147.101562 86.933594 128.40625 99.84375 Z M 88.046875 150.453125 C 82.75 163.664062 80.019531 177.765625 80 192 C 80.011719 214.71875 86.933594 236.898438 99.84375 255.59375 L 74.125 300.140625 C 81.503906 308.183594 89.664062 315.46875 98.546875 321.859375 L 122.71875 279.984375 L 138.984375 251.8125 C 121.851562 236.652344 112.027344 214.878906 112 192 C 112.027344 183.398438 113.441406 174.855469 116.1875 166.703125 Z M 251.8125 245.015625 C 236.652344 262.148438 214.878906 271.972656 192 272 C 183.398438 271.972656 174.855469 270.558594 166.703125 267.8125 L 150.453125 295.953125 C 163.664062 301.25 177.765625 303.980469 192 304 C 214.71875 303.988281 236.898438 297.066406 255.59375 284.15625 L 300.140625 309.875 C 308.183594 302.496094 315.46875 294.335938 321.859375 285.453125 L 279.984375 261.28125 Z M 251.8125 245.015625"/>
  <use mask="url(#mask2)" xlink:href="#surface11"/>
  <use mask="url(#mask3)" xlink:href="#surface14"/>
  <path style="fill:rgb(100%,78.431373%,19.215686%)" d="M 240 192 C 240 218.507812 218.507812 240 192 240 C 165.492188 240 144 218.507812 144 192 C 144 165.492188 165.492188 144 192 144 C 218.507812 144 240 165.492188 240 192 Z M 240 192"/>
 </g>
</svg>
